app/images/customer-modal/third-modal/support.svg

<svg width="96" height="101" viewBox="0 0 96 101" fill="none" xmlns="http://www.w3.org/2000/svg">
<path d="M91.0677 45.4888C90.939 40.1422 89.8581 34.9704 87.8449 30.0872C88.5411 29.6144 89.0791 28.9267 89.357 28.1231C89.7083 27.1072 89.6246 25.9783 89.127 25.0265C86.0376 19.1115 81.7963 14.0223 76.5215 9.90046C75.8849 9.40313 74.9653 9.51558 74.4676 10.1525C73.9703 10.7893 74.0829 11.7089 74.7197 12.2064C79.6637 16.0695 83.6384 20.8386 86.5336 26.3816C86.6615 26.6263 86.682 26.9051 86.5915 27.1668C86.5006 27.4301 86.3109 27.6379 86.0572 27.7522L79.1487 30.8672C78.6737 31.0809 78.1099 30.892 77.8648 30.4365C71.9068 19.3636 60.3996 12.4849 47.8337 12.4849C35.2679 12.4849 23.7606 19.3636 17.8026 30.4365C17.5574 30.892 16.9933 31.0813 16.5189 30.8672L9.61004 27.752C9.35659 27.6379 9.16688 27.43 9.07594 27.167C8.9854 26.9053 9.00593 26.6261 9.13383 26.3814C16.6908 11.9136 31.5196 2.9261 47.8337 2.9261C55.4568 2.9261 62.9891 4.94554 69.6163 8.76616C70.3163 9.16884 71.211 8.92927 71.6147 8.22933C72.0181 7.52919 71.7778 6.63466 71.0778 6.23101C64.0069 2.15458 55.969 0 47.8337 0C39.321 0 30.9626 2.34448 23.6624 6.78017C16.3871 11.2004 10.4664 17.51 6.5402 25.0265C6.04287 25.9787 5.95917 27.1074 6.31061 28.1235C6.5887 28.9273 7.12691 29.6147 7.82333 30.0876C5.83244 34.9168 4.75114 40.0276 4.60329 45.3119C1.91794 46.3141 0.000195648 48.9045 0.000195648 51.935V63.9799C0.000195648 64.7879 0.655155 65.4429 1.46324 65.4429C2.27133 65.4429 2.92629 64.7879 2.92629 63.9799V51.935C2.92629 49.6517 4.7838 47.7942 7.06707 47.7942H10.8801C13.1633 47.7942 15.0208 49.6519 15.0208 51.935V73.1581C15.0208 75.4413 13.1633 77.2989 10.8801 77.2989H7.06687C4.78361 77.2989 2.9261 75.4411 2.9261 73.1581V70.4053C2.9261 69.5972 2.27114 68.9422 1.46305 68.9422C0.654959 68.9422 0 69.5972 0 70.4053V73.1581C0 77.0548 3.17017 80.2251 7.06707 80.2251H10.8801C14.7768 80.2251 17.9471 77.055 17.9471 73.1581V51.935C17.9471 48.9203 16.0491 46.3421 13.3859 45.3285C13.5267 41.3174 14.3532 37.424 15.8459 33.724C17.589 34.2243 19.4999 33.4581 20.3798 31.8229C25.8268 21.6997 36.3466 15.411 47.8341 15.411C59.3216 15.411 69.8414 21.6995 75.2884 31.8229C75.9893 33.1256 77.345 33.8795 78.7486 33.8795C79.1071 33.8795 79.4687 33.8291 79.8233 33.7274C81.2971 37.3814 82.1202 41.2245 82.2755 45.1834C79.3954 46.0763 77.2973 48.7652 77.2973 51.935V73.1581C77.2973 75.8644 78.8272 78.219 81.0667 79.4059C79.0517 83.9353 74.8065 87.1586 69.8809 87.8429C69.3983 87.0026 68.7273 86.2682 67.8983 85.7079C67.2288 85.2556 66.3193 85.4318 65.8669 86.1014C65.4146 86.7708 65.5908 87.6802 66.2604 88.1328C67.2327 88.7897 67.8132 89.881 67.8132 91.0522V93.6852C67.8132 95.626 66.2344 97.205 64.2934 97.205H57.1498C55.209 97.205 53.63 95.6262 53.63 93.6852V91.0522C53.63 89.1114 55.2088 87.5324 57.1498 87.5324H60.1363C60.9444 87.5324 61.5994 86.8774 61.5994 86.0693C61.5994 85.2612 60.9444 84.6063 60.1363 84.6063H57.1498C53.5956 84.6063 50.7039 87.4979 50.7039 91.0522V93.6852C50.7039 97.2394 53.5956 100.131 57.1498 100.131H64.2934C66.7755 100.131 68.933 98.7199 70.0096 96.6584C74.7486 96.2291 79.171 94.3835 82.8336 91.2912C86.3991 88.2812 88.9311 84.3667 90.1948 79.93C93.1112 79.0596 95.244 76.3539 95.244 73.1581V51.935C95.2438 49.0679 93.5267 46.596 91.0677 45.4888ZM13.1592 32.5622C11.5659 36.489 10.6665 40.6168 10.4772 44.8681H7.54797C7.73865 40.1807 8.71845 35.6455 10.4696 31.3496L13.1592 32.5622ZM85.19 44.8681C85.0007 40.6166 84.1015 36.489 82.508 32.5624L85.1981 31.3494C86.949 35.6453 87.9286 40.1811 88.1193 44.8681H85.19ZM70.7391 93.6296V91.0522C70.7391 90.9247 70.7348 90.7976 70.7274 90.6712C76.6015 89.6971 81.6127 85.7196 83.9058 80.2087C84.0573 80.2185 84.2099 80.2251 84.364 80.2251H87.0286C84.5431 87.312 78.1801 92.5624 70.7391 93.6296ZM92.3177 73.1581C92.3177 75.4413 90.4602 77.2989 88.1772 77.2989H84.364C82.0807 77.2989 80.2234 75.4411 80.2234 73.1581V51.935C80.2234 49.6517 82.0809 47.7942 84.364 47.7942H88.1772C90.4604 47.7942 92.3177 49.6519 92.3177 51.935V73.1581Z" fill="#30AAF7"/>
<path d="M50.4254 68.275C50.2449 68.275 50.0616 68.2415 49.8837 68.1707C49.1307 67.8715 48.7633 67.0184 49.0629 66.2659L55.1239 51.0268C55.4233 50.274 56.2766 49.9062 57.0288 50.206C57.7817 50.5052 58.1492 51.3583 57.8496 52.1108L51.7885 67.3499C51.5599 67.9247 51.0084 68.275 50.4254 68.275Z" fill="#30AAF7"/>
<path d="M64.552 68.2746C64.3549 68.2746 64.1546 68.2347 63.9624 68.1502C63.2208 67.8242 62.8838 66.9586 63.2098 66.217L69.0047 53.0351H62.8684C62.0581 53.0351 61.4016 52.3786 61.4016 51.5683C61.4016 50.7581 62.0581 50.1016 62.8684 50.1016H71.2518C71.7472 50.1016 72.2093 50.3517 72.48 50.7665C72.7507 51.1813 72.7939 51.705 72.5946 52.1586L65.8956 67.3976C65.6541 67.9472 65.1162 68.2746 64.552 68.2746Z" fill="#30AAF7"/>
<path d="M42.7932 68.2742C42.7889 68.2742 42.7846 68.2742 42.7803 68.2742C41.9702 68.2672 41.3192 67.6048 41.3262 66.7949C41.3342 65.874 41.3423 64.8461 41.3501 63.7765H35.2059C34.6871 63.7765 34.2067 63.5023 33.9429 63.0554C33.6791 62.6086 33.6711 62.0555 33.9218 61.601C34.7786 60.0482 39.0967 52.2468 39.9721 51.1731C40.7029 50.2768 41.6878 49.9117 42.6082 50.1964C43.5389 50.4847 44.2003 51.39 44.293 52.5026C44.3388 53.0515 44.3259 57.1233 44.3038 60.8428H44.7759C45.5859 60.8428 46.2426 61.4993 46.2426 62.3096C46.2426 63.1198 45.5859 63.7763 44.7759 63.7763H44.2842C44.274 65.1494 44.2648 66.2634 44.26 66.8199C44.2527 67.6257 43.5974 68.2742 42.7932 68.2742ZM37.6973 60.843H41.3694C41.3841 58.3372 41.3937 55.9197 41.3898 54.3783C40.5101 55.8529 39.1147 58.3027 37.6973 60.843Z" fill="#30AAF7"/>
<path d="M27.6481 68.427C24.7198 68.427 24.5045 68.3552 24.3076 68.2895C23.8186 68.1266 23.4535 67.7572 23.3055 67.2761C23.0502 66.4467 23.4068 65.9801 24.3594 64.7327C25.1342 63.7181 26.5769 61.8291 28.994 58.3756C29.7119 57.35 30.175 56.4314 30.371 55.6437L30.423 55.2363C30.3794 53.933 29.3055 52.8862 27.9917 52.8862C26.8316 52.8862 25.8277 53.7103 25.6046 54.8458C25.4483 55.6405 24.6774 56.1574 23.8826 56.0024C23.0878 55.8461 22.5699 55.0754 22.726 54.2804C23.2186 51.7728 25.4331 49.9526 27.9915 49.9526C30.9502 49.9526 33.3575 52.3599 33.3575 55.3186C33.3575 55.3806 33.3536 55.4428 33.3456 55.5042L33.2703 56.0939C33.264 56.143 33.2554 56.1915 33.2443 56.2396C32.973 57.4093 32.3515 58.694 31.3969 60.0575C29.5961 62.6302 28.3269 64.3494 27.4676 65.4898C28.9107 65.4945 30.7707 65.4769 32.5181 65.4548C33.3289 65.4485 33.9931 66.0931 34.0033 66.9028C34.0134 67.713 33.3651 68.3777 32.5551 68.3879C30.3856 68.4157 28.805 68.427 27.6481 68.427Z" fill="#30AAF7"/>
</svg>

<svg width="96" height="101" fill="none" xmlns="http://www.w3.org/2000/svg"><path d="M91.068 45.489c-.129-5.347-1.21-10.519-3.223-15.402a3.94 3.94 0 001.512-1.964 3.935 3.935 0 00-.23-3.097A46.246 46.246 0 0076.522 9.9a1.463 1.463 0 00-1.802 2.306 43.338 43.338 0 0111.814 14.176.984.984 0 01.057.785.99.99 0 01-.534.585l-6.908 3.115a.997.997 0 01-1.284-.43 34.062 34.062 0 00-30.031-17.952 34.062 34.062 0 00-30.031 17.951.996.996 0 01-1.284.431L9.61 27.752a.99.99 0 01-.534-.585.985.985 0 01.058-.786C16.69 11.914 31.52 2.926 47.834 2.926c7.623 0 15.155 2.02 21.782 5.84a1.464 1.464 0 001.462-2.535A46.61 46.61 0 0047.834 0a46.547 46.547 0 00-24.172 6.78A46.613 46.613 0 006.54 25.027a3.936 3.936 0 00-.23 3.096 3.941 3.941 0 001.513 1.965 42.897 42.897 0 00-3.22 15.224C1.918 46.314 0 48.905 0 51.935V63.98a1.463 1.463 0 102.926 0V51.935a4.145 4.145 0 014.141-4.14h3.813a4.146 4.146 0 014.14 4.14v21.223a4.145 4.145 0 01-4.14 4.14H7.067a4.146 4.146 0 01-4.14-4.14v-2.753a1.463 1.463 0 10-2.927 0v2.753a7.075 7.075 0 007.067 7.067h3.813a7.075 7.075 0 007.067-7.067V51.935c0-3.015-1.898-5.593-4.561-6.607.14-4.01.967-7.904 2.46-11.604 1.743.5 3.654-.266 4.534-1.901A31.14 31.14 0 0147.834 15.41a31.14 31.14 0 0127.454 16.412 3.929 3.929 0 004.535 1.904 34.065 34.065 0 012.453 11.456c-2.88.893-4.979 3.582-4.979 6.752v21.223c0 2.706 1.53 5.061 3.77 6.248-2.015 4.53-6.26 7.753-11.186 8.437a6.45 6.45 0 00-1.983-2.135 1.463 1.463 0 00-1.638 2.425 3.52 3.52 0 011.553 2.92v2.632c0 1.941-1.579 3.52-3.52 3.52H57.15a3.524 3.524 0 01-3.52-3.52v-2.633c0-1.94 1.579-3.52 3.52-3.52h2.986a1.463 1.463 0 100-2.926H57.15a6.453 6.453 0 00-6.446 6.446v2.633a6.453 6.453 0 006.446 6.446h7.143a6.45 6.45 0 005.717-3.473 22.968 22.968 0 0012.824-5.367c3.565-3.01 6.097-6.924 7.36-11.361 2.917-.87 5.05-3.576 5.05-6.772V51.935a7.076 7.076 0 00-4.176-6.446zM13.159 32.562a36.967 36.967 0 00-2.682 12.306H7.548A39.955 39.955 0 0110.47 31.35l2.69 1.212zM85.19 44.868a36.959 36.959 0 00-2.682-12.306l2.69-1.213a39.964 39.964 0 012.921 13.52H85.19zM70.74 93.63v-2.578a6.52 6.52 0 00-.013-.38c5.874-.975 10.886-4.952 13.179-10.463.151.01.304.016.458.016h2.665c-2.486 7.087-8.849 12.337-16.29 13.405zm21.578-20.472a4.145 4.145 0 01-4.14 4.14h-3.814a4.145 4.145 0 01-4.14-4.14V51.935a4.145 4.145 0 014.14-4.14h3.813a4.145 4.145 0 014.14 4.14v21.223z" fill="#30AAF7"/><path d="M50.425 68.275a1.466 1.466 0 01-1.363-2.01l6.062-15.238a1.466 1.466 0 112.726 1.084L51.788 67.35c-.228.575-.78.925-1.363.925zM64.552 68.275a1.467 1.467 0 01-1.342-2.058l5.795-13.182h-6.137a1.467 1.467 0 110-2.933h8.384a1.467 1.467 0 011.343 2.057l-6.7 15.239c-.24.55-.779.877-1.343.877zM42.793 68.274h-.013a1.467 1.467 0 01-1.454-1.48l.024-3.017h-6.144a1.467 1.467 0 01-1.284-2.176c.857-1.553 5.175-9.354 6.05-10.428.73-.896 1.716-1.261 2.636-.977.93.289 1.592 1.194 1.685 2.307.046.548.033 4.62.01 8.34h.473a1.467 1.467 0 110 2.933h-.492l-.024 3.044a1.467 1.467 0 01-1.467 1.454zm-5.096-7.431h3.672c.015-2.506.025-4.923.02-6.465-.879 1.475-2.274 3.925-3.692 6.465z" fill="#30AAF7"/><path d="M27.648 68.427c-2.928 0-3.143-.072-3.34-.138a1.54 1.54 0 01-1.003-1.013c-.255-.83.102-1.296 1.054-2.543.775-1.015 2.218-2.904 4.635-6.357.718-1.026 1.181-1.945 1.377-2.732l.052-.408a2.436 2.436 0 00-2.431-2.35c-1.16 0-2.164.824-2.387 1.96a1.468 1.468 0 01-2.879-.566 5.375 5.375 0 015.265-4.327 5.372 5.372 0 015.367 5.366c0 .062-.004.124-.012.185l-.076.59a1.49 1.49 0 01-.026.146c-.271 1.17-.892 2.454-1.847 3.817-1.8 2.573-3.07 4.292-3.93 5.433a343.68 343.68 0 005.051-.035 1.467 1.467 0 11.037 2.933c-2.17.028-3.75.039-4.907.039z" fill="#30AAF7"/></svg>
